gtk/icon/16x16/apps/microscope.svg

<svg xmlns="http://www.w3.org/2000/svg" width="16" height="16" x="0" y="0" version="1.1" viewBox="0 0 16 16" xml:space="preserve">
 <path style="fill:#3f3f3f" d="m 7.3358324,15.8 4.8515786,0 c 0.562858,0 1.019179,-0.25632 1.019179,-0.819179 0,-0.562859 -0.456321,-0.818821 -1.019179,-0.818821 l -4.5162188,0 -2.665528,-2.986694 C 4.4338855,10.534634 4.0929602,9.7619894 3.9908078,8.9715949 3.8399189,7.8041057 4.1859269,6.5720274 5.126539,5.721066 L 6.9691656,4.054062 C 7.3865617,3.6764483 7.3901888,3.0198328 7.0010656,2.6130784 6.6119428,2.2063577 5.9668704,2.1920552 5.5600816,2.5811784 L 3.8175228,4.248182 c -2.3492087,2.2473588 -2.432068,5.987 -0.1846756,8.336208 l 2.9665256,3.100956 C 6.7916584,15.886328 7.0576984,15.8 7.3358324,15.8 Z"/>
 <rect width="4" height="1" x="-13" y="13" transform="scale(-1,1)" style="fill:#e4e4e4"/>
 <path style="fill:#4f4f4f" d="M 7.0172271,8.4305029 C 7.0529831,8.2951865 7.1418007,8.1793769 7.2641979,8.1085553 l 1.79078,-1.0358892 C 9.3097995,6.9252589 9.637881,7.0092251 9.787612,7.2602813 l 1.138614,1.9095404 c 0.14966,0.2510904 0.06441,0.5741272 -0.190483,0.7216048 L 8.9449631,10.927316 c -0.1103716,0.06383 -0.23441,0.08428 -0.3517756,0.0666 -0.1536924,-0.0232 -0.2959656,-0.111839 -0.380858,-0.254219 L 7.0737155,8.8301601 C 7.0018111,8.7096057 6.9815067,8.5658189 7.0172271,8.4305029 Z"/>
 <path style="fill:#ff9b32" d="M 3.055425,2.1878021 C 3.1697138,1.7212621 3.4483186,1.3298671 3.8399518,1.0857337 L 5.1830162,0.24846881 C 5.5191138,0.03898535 5.916055,-0.04193465 6.3007546,0.02060406 6.8090978,0.10324948 7.2499294,0.42037981 7.510189,0.89072285 l 3.421257,6.18333675 c 0.06688,0.1208166 0.08576,0.2648391 0.05252,0.40041 -0.03321,0.1355704 -0.115781,0.2515983 -0.229605,0.3225529 L 7.3372466,9.9271762 C 7.2346358,9.9911237 7.119319,10.011618 7.0102062,9.9939054 6.8673202,9.9706637 6.735051,9.8818571 6.656127,9.7392083 L 3.2348698,3.5559062 C 3.0048662,3.1401787 2.9411366,2.6543421 3.055425,2.1878021 Z"/>
 <path d="m 3.0513068,14 4.3458916,0 1.6622908,0 3.8892038,0 C 13.529295,14 14,14.447733 14,15 c 0,0.552267 -0.470705,1 -1.051307,1 l -3.8892038,0 -2.456308,0 -3.5518744,0 C 2.4707052,16 2,15.552267 2,15 2,14.4477 2.47067,14 3.0513068,14 Z" style="fill:#ff9b32"/>
 <path style="fill:#4f4f4f" d="M 4,7 C 5.1028037,7 6,6.1028037 6,5 6,3.8971963 5.1028037,3 4,3 2.8971963,3 2,3.8971963 2,5 2,6.1028037 2.8971963,7 4,7 Z"/>
 <circle style="fill:#e4e4e4" cx="4" cy="5" r="1"/>
</svg>

<svg xmlns="http://www.w3.org/2000/svg" width="16" height="16" x="0" y="0" version="1.1" xml:space="preserve">
 <path style="fill:#3f3f3f" d="M 7.3358,15.8 H 12.187 C 12.75,15.8 13.207,15.544 13.207,14.981 13.207,14.418 12.75,14.162 12.187,14.162 H 7.6712 L 5.0057,11.175 C 4.4339,10.535 4.093,9.762 3.9908,8.9716 3.8399,7.8041 4.1859,6.572 5.1265,5.7211 L 6.9692,4.0541 C 7.3866,3.6764 7.3902,3.0198 7.0011,2.6131 6.6119,2.2064 5.9669,2.1921 5.5601,2.5812 L 3.8175,4.2482 C 1.4683,6.4955 1.3855,10.235 3.6328,12.584 L 6.5994,15.685 C 6.7917,15.886 7.0577,15.8 7.3358,15.8 Z"/>
 <rect style="fill:#e4e4e4" width="4" height="1" x="-13" y="13" transform="scale(-1,1)"/>
 <path style="fill:#4f4f4f" d="M 7.0172,8.4305 C 7.053,8.2952 7.1418,8.1794 7.2642,8.1086 L 9.055,7.0727 C 9.3098,6.9253 9.6379,7.0092 9.7876,7.2603 L 10.926,9.1698 C 11.076,9.4209 10.991,9.7439 10.736,9.8914 L 8.945,10.927 C 8.8346,10.991 8.7106,11.012 8.5932,10.994 8.4395,10.971 8.2972,10.882 8.2123,10.74 L 7.0737,8.8302 C 7.0018,8.7096 6.9815,8.5658 7.0172,8.4305 Z"/>
 <path style="fill:#ff9b32" d="M 3.0554,2.1878 C 3.1697,1.7213 3.4483,1.3299 3.84,1.0857 L 5.183,0.24847 C 5.5191,0.03899 5.9161,-0.04193 6.3008,0.0206 6.8091,0.10325 7.2499,0.42038 7.5102,0.89072 L 10.931,7.0741 C 10.998,7.1949 11.017,7.3389 10.984,7.4745 10.951,7.61 10.868,7.7261 10.754,7.797 L 7.3372,9.9272 C 7.2346,9.9911 7.1193,10.012 7.0102,9.9939 6.8673,9.9707 6.7351,9.8819 6.6561,9.7392 L 3.2349,3.5559 C 3.0049,3.1402 2.9411,2.6543 3.0554,2.1878 Z"/>
 <path style="fill:#ff9b32" d="M 3.0513,14 H 7.3972 9.0595 12.949 C 13.529,14 14,14.448 14,15 14,15.552 13.529,16 12.949,16 H 9.0595 6.6032 3.0513 C 2.4707,16 2,15.552 2,15 2,14.448 2.4707,14 3.0513,14 Z"/>
 <path style="fill:#4f4f4f" d="M 4,7 C 5.1028,7 6,6.1028 6,5 6,3.8972 5.1028,3 4,3 2.8972,3 2,3.8972 2,5 2,6.1028 2.8972,7 4,7 Z"/>
 <circle style="fill:#e4e4e4" cx="4" cy="5" r="1"/>
</svg>
